src/public/img/history/cloudflare.svg

<svg width="602" height="203" viewBox="0 0 602 203" fill="none" style="width:auto;height:40px" xmlns="http://www.w3.org/2000/svg">
	<path
		d="M510.338 128.167L511.809 123.081C513.562 117.031 512.91 111.438 509.969 107.329C507.262 103.544 502.752 101.315 497.274 101.056L393.528 99.7432C393.206 99.7369 392.89 99.655 392.606 99.504C392.321 99.353 392.077 99.1373 391.891 98.8742C391.71 98.6023 391.594 98.2918 391.553 97.9674C391.513 97.6429 391.549 97.3135 391.658 97.0053C391.836 96.4971 392.159 96.0521 392.587 95.7254C393.016 95.3987 393.53 95.2045 394.068 95.1668L498.775 93.8398C511.196 93.2698 524.644 83.1988 529.352 70.9178L535.323 55.3265C535.568 54.6672 535.624 53.9529 535.485 53.2637C528.705 22.7889 501.487 0 468.944 0C438.96 0 413.501 19.3385 404.369 46.2179C398.198 41.5895 390.504 39.4618 382.83 40.2608C368.445 41.6882 356.879 53.2613 355.455 67.6379C355.09 71.2277 355.357 74.8538 356.246 78.3513C332.747 79.0358 313.902 98.2738 313.902 121.922C313.905 124.033 314.061 126.141 314.369 128.23C314.437 128.712 314.676 129.154 315.043 129.475C315.41 129.796 315.881 129.974 316.368 129.977L507.902 130.001C507.92 130.002 507.938 130.002 507.956 130.001C508.498 129.991 509.022 129.808 509.451 129.478C509.88 129.147 510.191 128.688 510.338 128.167Z"
		fill="#F6821F"></path>
	<path
		d="M544.899 56.4571C543.938 56.4571 542.98 56.4813 542.026 56.5295C541.872 56.5405 541.721 56.5736 541.577 56.6277C541.327 56.7131 541.101 56.8578 540.919 57.0494C540.737 57.241 540.604 57.4739 540.532 57.728L536.453 71.8078C534.699 77.8584 535.351 83.4464 538.295 87.5556C541 91.3448 545.51 93.5688 550.987 93.8281L573.104 95.155C573.415 95.1653 573.719 95.2479 573.993 95.3963C574.266 95.5448 574.501 95.7549 574.679 96.0101C574.863 96.2834 574.98 96.5959 575.02 96.9225C575.061 97.2492 575.024 97.5808 574.913 97.8906C574.735 98.3978 574.412 98.842 573.985 99.1686C573.558 99.4951 573.044 99.69 572.508 99.7292L549.528 101.056C537.051 101.631 523.606 111.697 518.902 123.978L517.242 128.314C517.173 128.495 517.147 128.69 517.168 128.883C517.189 129.076 517.255 129.262 517.362 129.424C517.469 129.586 517.612 129.721 517.781 129.817C517.95 129.912 518.14 129.967 518.334 129.975C518.355 129.975 518.374 129.975 518.395 129.975H597.467C597.927 129.979 598.375 129.833 598.744 129.558C599.112 129.283 599.381 128.896 599.508 128.454C600.909 123.459 601.617 118.296 601.612 113.108C601.603 81.8228 576.215 56.4571 544.899 56.4571Z"
		fill="#FBAD41"></path>
	<path d="M66.9595 153.39H80.4491V190.214H104.022V202.024H66.9595V153.39Z" fill="#222222"></path>
	<path
		d="M117.993 177.847V177.709C117.993 163.744 129.257 152.416 144.276 152.416C159.295 152.416 170.418 163.604 170.418 177.569V177.709C170.418 191.674 159.152 202.995 144.138 202.995C129.124 202.995 117.993 191.812 117.993 177.847ZM156.65 177.847V177.709C156.65 170.701 151.577 164.575 144.138 164.575C136.767 164.575 131.829 170.551 131.829 177.569V177.709C131.829 184.718 136.905 190.841 144.276 190.841C151.715 190.841 156.65 184.865 156.65 177.847Z"
		fill="#222222"></path>
	<path
		d="M186.928 180.695V153.388H200.626V180.419C200.626 187.427 204.173 190.77 209.594 190.77C215.016 190.77 218.562 187.575 218.562 180.765V153.388H232.262V180.34C232.262 196.043 223.294 202.918 209.456 202.918C195.618 202.918 186.928 195.91 186.928 180.688"
		fill="#222222"></path>
	<path
		d="M252.906 153.392H271.679C289.064 153.392 299.145 163.396 299.145 177.429V177.571C299.145 191.602 288.924 202.026 271.403 202.026H252.906V153.392ZM271.89 190.07C279.958 190.07 285.307 185.631 285.307 177.77V177.632C285.307 169.853 279.958 165.335 271.89 165.335H266.396V190.074L271.89 190.07Z"
		fill="#222222"></path>
	<path d="M318.75 153.39H357.686V165.204H332.24V173.469H355.254V184.654H332.24V202.024H318.75V153.39Z" fill="#222222"></path>
	<path d="M376.457 153.39H389.946V190.214H413.519V202.024H376.457V153.39Z" fill="#222222"></path>
	<path
		d="M448.768 153.042H461.766L482.489 202.024H468.027L464.478 193.338H445.703L442.229 202.024H428.045L448.768 153.042ZM460.586 182.849L455.162 169.021L449.668 182.849H460.586Z"
		fill="#222222"></path>
	<path
		d="M499.865 153.388H522.879C530.323 153.388 535.464 155.336 538.732 158.67C541.587 161.45 543.045 165.211 543.045 169.998V170.135C543.045 177.567 539.071 182.501 533.032 185.07L544.645 202.026H529.065L519.262 187.294H513.354V202.026H499.865V153.388ZM522.255 176.735C526.844 176.735 529.488 174.511 529.488 170.967V170.829C529.488 167.007 526.706 165.064 522.182 165.064H513.354V176.744L522.255 176.735Z"
		fill="#222222"></path>
	<path d="M562.508 153.39H601.652V164.856H575.86V172.217H599.223V182.849H575.86V190.562H602V202.024H562.508V153.39Z"
	      fill="#222222"></path>
	<path
		d="M37.425 183.547C35.536 187.815 31.5615 190.838 26.2802 190.838C18.9065 190.838 13.8333 184.724 13.8333 177.707V177.567C13.8333 170.558 18.7686 164.573 26.14 164.573C31.6971 164.573 35.9287 167.989 37.7149 172.635H51.9339C49.6568 161.06 39.4776 152.418 26.2802 152.418C11.2593 152.418 0 163.753 0 177.707V177.845C0 191.81 11.1214 203 26.14 203C38.9867 203 49.0279 194.688 51.6768 183.549L37.425 183.547Z"
		fill="#222222"></path>
</svg>

<svg xmlns="http://www.w3.org/2000/svg" width="602" height="203" fill="none" style="width:auto;height:40px">
  <path fill="#F6821F" d="m510.338 128.167 1.471-5.086c1.753-6.05 1.101-11.643-1.84-15.752-2.707-3.785-7.217-6.014-12.695-6.273l-103.746-1.313a2.05 2.05 0 0 1-1.637-.869 2.116 2.116 0 0 1-.338-.907 2.111 2.111 0 0 1 .105-.962 2.757 2.757 0 0 1 2.41-1.838l104.707-1.327c12.421-.57 25.869-10.641 30.577-22.922l5.971-15.592a3.775 3.775 0 0 0 .162-2.062C528.705 22.789 501.487 0 468.944 0c-29.984 0-55.443 19.338-64.575 46.218a30.616 30.616 0 0 0-21.539-5.957c-14.385 1.427-25.951 13-27.375 27.377a30.829 30.829 0 0 0 .791 10.713c-23.499.685-42.344 19.923-42.344 43.571a43.67 43.67 0 0 0 .467 6.308 2.031 2.031 0 0 0 1.999 1.747l191.534.024a2.528 2.528 0 0 0 1.549-.523c.429-.331.74-.79.887-1.311Z"/>
  <path fill="#FBAD41" d="M544.899 56.457c-.961 0-1.919.024-2.873.072a1.6 1.6 0 0 0-.449.099 1.638 1.638 0 0 0-1.045 1.1l-4.079 14.08c-1.754 6.05-1.102 11.638 1.842 15.748 2.705 3.789 7.215 6.013 12.692 6.272l22.117 1.327a2.005 2.005 0 0 1 1.575.855 2.096 2.096 0 0 1 .234 1.88 2.76 2.76 0 0 1-2.405 1.84l-22.98 1.326c-12.477.575-25.922 10.641-30.626 22.922l-1.66 4.336a1.226 1.226 0 0 0 1.092 1.661h79.133a2.105 2.105 0 0 0 2.041-1.521 56.62 56.62 0 0 0 2.104-15.346c-.009-31.285-25.397-56.65-56.713-56.65Z"/>
  <path fill="#222" d="M66.96 153.39h13.49v36.824h23.572v11.81H66.959V153.39Zm51.033 24.457v-.138c0-13.965 11.264-25.293 26.283-25.293 15.019 0 26.142 11.188 26.142 25.153v.14c0 13.965-11.266 25.286-26.28 25.286-15.014 0-26.145-11.183-26.145-25.148Zm38.657 0v-.138c0-7.008-5.073-13.134-12.512-13.134-7.371 0-12.309 5.976-12.309 12.994v.14c0 7.009 5.076 13.132 12.447 13.132 7.439 0 12.374-5.976 12.374-12.994Zm30.278 2.848v-27.307h13.698v27.031c0 7.008 3.547 10.351 8.968 10.351 5.422 0 8.968-3.195 8.968-10.005v-27.377h13.7v26.952c0 15.703-8.968 22.578-22.806 22.578-13.838 0-22.528-7.008-22.528-22.23m65.978-27.296h18.773c17.385 0 27.466 10.004 27.466 24.037v.142c0 14.031-10.221 24.455-27.742 24.455h-18.497v-48.634Zm18.984 36.678c8.068 0 13.417-4.439 13.417-12.3v-.138c0-7.779-5.349-12.297-13.417-12.297h-5.494v24.739l5.494-.004Zm46.86-36.68h38.936v11.814H332.24v8.265h23.014v11.185H332.24v17.37h-13.49V153.39Zm57.707 0h13.489v36.824h23.573v11.81h-37.062V153.39Zm72.311-.348h12.998l20.723 48.982h-14.462l-3.549-8.686h-18.775l-3.474 8.686h-14.184l20.723-48.982Zm11.818 29.807-5.424-13.828-5.494 13.828h10.918Zm39.279-29.461h23.014c7.444 0 12.585 1.948 15.853 5.282 2.855 2.78 4.313 6.541 4.313 11.328v.137c0 7.432-3.974 12.366-10.013 14.935l11.613 16.956h-15.58l-9.803-14.732h-5.908v14.732h-13.489v-48.638Zm22.39 23.347c4.589 0 7.233-2.224 7.233-5.768v-.138c0-3.822-2.782-5.765-7.306-5.765h-8.828v11.68l8.901-.009Zm40.253-23.345h39.144v11.466H575.86v7.361h23.363v10.632H575.86v7.713H602v11.462h-39.492V153.39ZM37.425 183.547c-1.889 4.268-5.863 7.291-11.145 7.291-7.373 0-12.447-6.114-12.447-13.131v-.14c0-7.009 4.936-12.994 12.307-12.994 5.557 0 9.789 3.416 11.575 8.062h14.219c-2.277-11.575-12.456-20.217-25.654-20.217-15.02 0-26.28 11.335-26.28 25.289v.138C0 191.81 11.121 203 26.14 203c12.847 0 22.888-8.312 25.537-19.451l-14.252-.002Z"/>
</svg>
